X: 9675
T: Deálaí's
R: polka
M: 2/4
K: Gmajor
|:DG GF/G/|AG FD|DG GA|Bc d2|
DG GB|A/B/A/G/ FD|de/d/ cF|AG G2:|
dg gf/g/|ag fd|dg ga|bg a2|
dg gb|a/b/a/g/ fd|de/d/ cF|AG G2|
dg gf/g/|a/b/a/g/ fd|g2 ga|bc' a2|
dg gf/g/|a/b/a/g/ fd|de/d/ cF|AG G2|

